src/icons/3d_column_stacked.svg

<!DOCTYPE svg PUBLIC "-//W3C//DTD SVG 1.1//EN" "http://www.w3.org/Graphics/SVG/1.1/DTD/svg11.dtd"><svg xmlns:xlink="http://www.w3.org/1999/xlink" version="1.1" class="highcharts-root" style="font-family:'lucida grande', 'lucida sans unicode', arial, helvetica, sans-serif;font-size:12px;" xmlns="http://www.w3.org/2000/svg" width="100" viewBox="0 0 100 70" height="70"><desc>Created with Highcharts 5.0.0</desc><defs><clipPath id="highcharts-5"><rect x="0" y="0" width="100" height="70" fill="none"></rect></clipPath></defs><rect fill="#ffffff" class="highcharts-background" x="0" y="0" width="100" height="70" rx="0" ry="0"></rect><rect fill="none" class="highcharts-plot-background" x="0" y="0" width="100" height="70"></rect><g stroke-linejoin="round" class="highcharts-3d-frame highcharts-3d-frame-back"><path fill="none" d="M 87.51958563244574 8.679941658645856 L 86.35782884707069 50.212728275273214 L 86.45418417111884 50.040652107266595 L 87.61713310316344 8.569648435415996 Z" class="highcharts-3d-side"></path><path fill="none" d="M 87.51958563244574 8.679941658645856 L 87.61713310316344 8.569648435415996 L 28.86697110608696 5.714775232709172 L 28.682220713549064 5.815992733879419 Z" class="highcharts-3d-top"></path><path fill="none" d="M 29.315366476804915 45.73887903019228 L 86.35782884707069 50.212728275273214 L 87.51958563244574 8.679941658645856 L 28.682220713549064 5.815992733879419 Z" class="highcharts-3d-front"></path></g><g stroke-linejoin="round" class="highcharts-3d-frame highcharts-3d-frame-side"><path fill="none" d="M 8.285387013319266 64.41131236135271 L 8.91360557595987 64.47025762312748 L 7.423819279818808 17.856984013369424 L 6.773567390492168 17.818885463378024 Z" class="highcharts-3d-front"></path><path fill="none" d="M 7.423819279818808 17.856984013369424 L 29.240499760741457 5.843167347819566 L 28.682220713549064 5.815992733879419 L 6.773567390492168 17.818885463378024 Z" class="highcharts-3d-top"></path><path fill="none" d="M 7.423819279818808 17.856984013369424 L 8.91360557595987 64.47025762312748 L 29.85731366474156 45.781384032902125 L 29.240499760741457 5.843167347819566 Z" class="highcharts-3d-side"></path></g><g stroke-linejoin="round" class="highcharts-3d-frame highcharts-3d-frame-bottom"><path fill="none" d="M 8.91360557595987 64.47025762312748 L 74.90690726666064 70.6623580717185 L 74.91980240246409 70 L 8.893346900661136 63.83639276806903 Z" class="highcharts-3d-front"></path><path fill="none" d="M 74.91980240246409 70 L 74.90690726666064 70.6623580717185 L 86.35782884707069 50.212728275273214 L 86.37369187976026 49.64562510868756 Z" class="highcharts-3d-side"></path><path fill="none" d="M 74.91980240246409 70 L 86.37369187976026 49.64562510868756 L 29.84888074270531 45.23535894269618 L 8.893346900661136 63.83639276806903 Z" class="highcharts-3d-top"></path></g><g class="highcharts-grid highcharts-xaxis-grid "><path fill="none" stroke="#e6e6e6" stroke-width="1" class="highcharts-grid-line" d="M 47.641266526360084 6.738837238303496 L 47.641266526360084 6.738837238303496 L 47.71131251845285 46.62904919867769 L 29.651237253255044 65.77415365685981" opacity="1"></path><path fill="none" stroke="#e6e6e6" stroke-width="1" class="highcharts-grid-line" d="M 67.43979973340875 7.7025443650322245 L 67.43979973340875 7.7025443650322245 L 66.91458213533345 48.12735637678375 L 52.07747263097181 67.86765550408992" opacity="1"></path><path fill="none" stroke="#e6e6e6" stroke-width="1" class="highcharts-grid-line" d="M 87.21558893834359 8.665144411923361 L 87.21558893834359 8.665144411923361 L 86.07921906804428 49.622649295903926 L 74.57324712910084 69.96764886782228" opacity="1"></path><path fill="none" stroke="#e6e6e6" stroke-width="1" class="highcharts-grid-line" d="M 28.961302104099577 5.829577211183782 L 28.961302104099577 5.829577211183782 L 29.57774065189127 45.21420363152032 L 8.579012816741894 63.807049502280165" opacity="1"></path></g><g class="highcharts-grid highcharts-zaxis-grid "></g><g class="highcharts-grid highcharts-yaxis-grid "><path fill="none" stroke="#e6e6e6" stroke-width="1" class="highcharts-grid-line" d="M 8.903478734956735 64.15340331207325 L 29.853098086168924 45.508428625452794 L 86.36575863352036 49.92923853570358 L 86.36575863352036 49.92923853570358" opacity="1"></path><path fill="none" stroke="#e6e6e6" stroke-width="1" class="highcharts-grid-line" d="M 7.41294463172391 17.51673189239715 L 29.23602201963229 5.553237121672254 L 87.52803034173517 8.378043435736146 L 87.52803034173517 8.378043435736146" opacity="1"></path></g><rect fill="none" class="highcharts-plot-border" x="0" y="0" width="100" height="70"></rect><g class="highcharts-axis highcharts-xaxis "><path fill="none" class="highcharts-axis-line" stroke="#ccd6eb" stroke-width="1" d="M 0 0"></path></g><g class="highcharts-axis highcharts-zaxis "><path fill="none" class="highcharts-axis-line" d="M 0 0"></path></g><g class="highcharts-axis highcharts-yaxis "><path fill="none" class="highcharts-axis-line" d="M 0 0"></path></g><g class="highcharts-series-group"><g class="highcharts-series highcharts-series-1 highcharts-column-series highcharts-color-1 " transform="translate(0,0) scale(1 1)" width="70" height="100" clip-path="url(#highcharts-5)"><g stroke-linejoin="round" class="highcharts-point highcharts-color-1" stroke="#434348" stroke-width="1"><path fill="#434348" d="M 14.506599510953471 64.43457340647126 L 24.70885834755619 65.38753086781759 L 24.53133470435099 56.37054407982523 L 14.259379755727714 55.48028088823258 Z" class="highcharts-3d-front"></path><path fill="rgb(92,92,97)" d="M 24.53133470435099 56.37054407982523 L 29.857958393721685 51.36507056835433 L 19.987606239176564 50.54984696456472 L 14.259379755727714 55.48028088823258 Z" class="highcharts-3d-top"></path><path fill="rgb(42,42,47)" d="M 24.53133470435099 56.37054407982523 L 24.70885834755619 65.38753086781759 L 29.992325004577054 60.028233247840035 L 29.857958393721685 51.36507056835433 Z" class="highcharts-3d-side"></path></g><g stroke-linejoin="round" class="highcharts-point highcharts-color-1" stroke="#434348" stroke-width="1"><path fill="#434348" d="M 35.72220670058802 66.41624937570077 L 46.25486539304412 67.40006833673125 L 46.18735605528975 44.279997359815255 L 35.466869334648145 43.46115791871169 Z" class="highcharts-3d-front"></path><path fill="rgb(92,92,97)" d="M 46.18735605528975 44.279997359815255 L 50.69201965142464 39.680552223142726 L 40.40945838457159 38.93248113893749 L 35.466869334648145 43.46115791871169 Z" class="highcharts-3d-top"></path><path fill="rgb(42,42,47)" d="M 46.18735605528975 44.279997359815255 L 46.25486539304412 67.40006833673125 L 50.6803005789471 61.87035803921065 L 50.69201965142464 39.680552223142726 Z" class="highcharts-3d-side"></path></g><g stroke-linejoin="round" class="highcharts-point highcharts-color-1" stroke="#434348" stroke-width="1"><path fill="#434348" d="M 57.62779251537872 68.46237384496769 L 68.50716493334117 69.47857812742197 L 69.05588030084081 31.512510833647312 L 57.85211198492924 30.77455571079548 Z" class="highcharts-3d-front"></path><path fill="rgb(92,92,97)" d="M 69.05588030084081 31.512510833647312 L 72.63943956075678 27.371620834845174 L 61.9141839686654 26.6991018004 L 57.85211198492924 30.77455571079548 Z" class="highcharts-3d-top"></path><path fill="rgb(42,42,47)" d="M 69.05588030084081 31.512510833647312 L 68.50716493334117 69.47857812742197 L 72.0164070457212 63.77019451825504 L 72.63943956075678 27.371620834845174 Z" class="highcharts-3d-side"></path></g></g><g class="highcharts-markers highcharts-series-1 highcharts-column-series highcharts-color-1 " transform="translate(0,0) scale(1 1)" width="70" height="100" clip-path="none"></g><g class="highcharts-series highcharts-series-0 highcharts-column-series highcharts-color-0 " transform="translate(0,0) scale(1 1)" width="70" height="100" clip-path="url(#highcharts-5)"><g stroke-linejoin="round" class="highcharts-point highcharts-color-0" stroke="#7cb5ec" stroke-width="1"><path fill="#7cb5ec" d="M 14.259379755727714 55.48028088823258 L 24.53133470435099 56.37054407982523 L 24.168704519808855 37.95141114684401 L 13.754462630113068 37.19219692789872 Z" class="highcharts-3d-front"></path><path fill="rgb(149,206,255)" d="M 24.168704519808855 37.95141114684401 L 29.583737222458304 33.684914749206534 L 19.582054003418175 32.99054273472514 L 13.754462630113068 37.19219692789872 Z" class="highcharts-3d-top"></path><path fill="rgb(99,156,211)" d="M 24.168704519808855 37.95141114684401 L 24.53133470435099 56.37054407982523 L 29.857958393721685 51.36507056835433 L 29.583737222458304 33.684914749206534 Z" class="highcharts-3d-side"></path></g><g stroke-linejoin="round" class="highcharts-point highcharts-color-0" stroke="#7cb5ec" stroke-width="1"><path fill="#7cb5ec" d="M 35.466869334648145 43.46115791871169 L 46.18735605528975 44.279997359815255 L 46.14566944092135 30.00349110091307 L 35.30923568701117 29.289731089401098 Z" class="highcharts-3d-front"></path><path fill="rgb(149,206,255)" d="M 46.14566944092135 30.00349110091307 L 50.6992469203046 25.995877660857026 L 40.31006128878723 25.34443163893362 L 35.30923568701117 29.289731089401098 Z" class="highcharts-3d-top"></path><path fill="rgb(99,156,211)" d="M 46.14566944092135 30.00349110091307 L 46.18735605528975 44.279997359815255 L 50.69201965142464 39.680552223142726 L 50.6992469203046 25.995877660857026 Z" class="highcharts-3d-side"></path></g><g stroke-linejoin="round" class="highcharts-point highcharts-color-0" stroke="#7cb5ec" stroke-width="1"><path fill="#7cb5ec" d="M 57.85211198492924 30.77455571079548 L 69.05588030084081 31.512510833647312 L 69.12676602595602 26.60786924842052 L 57.88108302011062 25.90714448134402 Z" class="highcharts-3d-front"></path><path fill="rgb(99,156,211)" d="M 69.12676602595602 26.60786924842052 L 69.05588030084081 31.512510833647312 L 72.63943956075678 27.371620834845174 L 72.71980677466314 22.676437378916965 Z" class="highcharts-3d-side"></path><path fill="rgb(149,206,255)" d="M 69.12676602595602 26.60786924842052 L 72.71980677466314 22.676437378916965 L 61.95614894846034 22.03806200282888 L 57.88108302011062 25.90714448134402 Z" class="highcharts-3d-top"></path></g></g><g class="highcharts-markers highcharts-series-0 highcharts-column-series highcharts-color-0 " transform="translate(0,0) scale(1 1)" width="70" height="100" clip-path="none"></g></g><g class="highcharts-axis-labels highcharts-xaxis-labels "></g><g class="highcharts-axis-labels highcharts-zaxis-labels "></g><g class="highcharts-axis-labels highcharts-yaxis-labels "></g></svg>

<svg class="highcharts-root" xmlns="http://www.w3.org/2000/svg" width="100" viewBox="0 0 100 70" height="70" font-family="'lucida grande','lucida sans unicode',arial,helvetica,sans-serif" font-size="12"><defs><clipPath id="a"><path fill="none" d="M0 0h100v70H0z"/></clipPath></defs><rect fill="#fff" class="highcharts-background" width="100" height="70" rx="0" ry="0"/><path fill="none" class="highcharts-plot-background" d="M0 0h100v70H0z"/><g stroke-linejoin="round" class="highcharts-3d-frame highcharts-3d-frame-back"><path fill="none" d="M87.52 8.68l-1.162 41.533.096-.172L87.617 8.57z" class="highcharts-3d-side"/><path fill="none" d="M87.52 8.68l.097-.11-58.75-2.855-.185.101z" class="highcharts-3d-top"/><path fill="none" d="M29.315 45.739l57.043 4.474L87.52 8.68 28.682 5.816z" class="highcharts-3d-front"/></g><g stroke-linejoin="round" class="highcharts-3d-frame highcharts-3d-frame-side"><path fill="none" d="M8.285 64.411l.629.06-1.49-46.614-.65-.038z" class="highcharts-3d-front"/><path fill="none" d="M7.424 17.857L29.24 5.843l-.558-.027L6.774 17.819z" class="highcharts-3d-top"/><path fill="none" d="M7.424 17.857l1.49 46.613 20.943-18.689-.617-39.938z" class="highcharts-3d-side"/></g><g stroke-linejoin="round" class="highcharts-3d-frame highcharts-3d-frame-bottom"><path fill="none" d="M8.914 64.47l65.993 6.192.013-.662-66.027-6.164z" class="highcharts-3d-front"/><path fill="none" d="M74.92 70l-.013.662 11.45-20.45.017-.566z" class="highcharts-3d-side"/><path fill="none" d="M74.92 70l11.454-20.354-56.525-4.41-20.956 18.6z" class="highcharts-3d-top"/></g><g class="highcharts-grid highcharts-xaxis-grid"><path fill="none" stroke="#e6e6e6" class="highcharts-grid-line" d="M47.641 6.739l.07 39.89-18.06 19.145M67.44 7.703l-.525 40.424-14.838 19.74M87.216 8.665l-1.137 40.958-11.506 20.345M28.961 5.83l.617 39.384L8.579 63.807"/></g><g class="highcharts-grid highcharts-yaxis-grid"><path fill="none" stroke="#e6e6e6" class="highcharts-grid-line" d="M8.903 64.153l20.95-18.645 56.513 4.421M7.413 17.517L29.236 5.553l58.292 2.825"/></g><path fill="none" class="highcharts-plot-border" d="M0 0h100v70H0z"/><g class="highcharts-series-group"><g class="highcharts-series highcharts-series-1 highcharts-column-series highcharts-color-1" clip-path="url(#a)"><g stroke-linejoin="round" class="highcharts-point highcharts-color-1" stroke="#434348"><path fill="#434348" d="M14.507 64.435l10.202.953-.178-9.017-10.272-.89z" class="highcharts-3d-front"/><path fill="#5C5C61" d="M24.531 56.37l5.327-5.005-9.87-.815-5.729 4.93z" class="highcharts-3d-top"/><path fill="#2A2A2F" d="M24.531 56.37l.178 9.018 5.283-5.36-.134-8.663z" class="highcharts-3d-side"/></g><g stroke-linejoin="round" class="highcharts-point highcharts-color-1" stroke="#434348"><path fill="#434348" d="M35.722 66.416l10.533.984-.068-23.12-10.72-.819z" class="highcharts-3d-front"/><path fill="#5C5C61" d="M46.187 44.28l4.505-4.6-10.283-.748-4.942 4.53z" class="highcharts-3d-top"/><path fill="#2A2A2F" d="M46.187 44.28l.068 23.12 4.425-5.53.012-22.19z" class="highcharts-3d-side"/></g><g stroke-linejoin="round" class="highcharts-point highcharts-color-1" stroke="#434348"><path fill="#434348" d="M57.628 68.462l10.88 1.017.548-37.966-11.204-.738z" class="highcharts-3d-front"/><path fill="#5C5C61" d="M69.056 31.513l3.583-4.141-10.725-.673-4.062 4.076z" class="highcharts-3d-top"/><path fill="#2A2A2F" d="M69.056 31.513l-.549 37.966 3.51-5.709.622-36.398z" class="highcharts-3d-side"/></g></g><g class="highcharts-series highcharts-series-0 highcharts-column-series highcharts-color-0" clip-path="url(#a)"><g stroke-linejoin="round" class="highcharts-point highcharts-color-0" stroke="#7cb5ec"><path fill="#7cb5ec" d="M14.26 55.48l10.271.89-.362-18.419-10.415-.759z" class="highcharts-3d-front"/><path fill="#95CEFF" d="M24.169 37.951l5.415-4.266-10.002-.694-5.828 4.201z" class="highcharts-3d-top"/><path fill="#639CD3" d="M24.169 37.951l.362 18.42 5.327-5.006-.274-17.68z" class="highcharts-3d-side"/></g><g stroke-linejoin="round" class="highcharts-point highcharts-color-0" stroke="#7cb5ec"><path fill="#7cb5ec" d="M35.467 43.461l10.72.819-.041-14.277-10.837-.713z" class="highcharts-3d-front"/><path fill="#95CEFF" d="M46.146 30.003l4.553-4.007-10.389-.652-5 3.946z" class="highcharts-3d-top"/><path fill="#639CD3" d="M46.146 30.003l.041 14.277 4.505-4.6.007-13.684z" class="highcharts-3d-side"/></g><g stroke-linejoin="round" class="highcharts-point highcharts-color-0" stroke="#7cb5ec"><path fill="#7cb5ec" d="M57.852 30.775l11.204.738.07-4.905-11.245-.7z" class="highcharts-3d-front"/><path fill="#639CD3" d="M69.127 26.608l-.071 4.905 3.583-4.141.08-4.696z" class="highcharts-3d-side"/><path fill="#95CEFF" d="M69.127 26.608l3.593-3.932-10.764-.638-4.075 3.87z" class="highcharts-3d-top"/></g></g></g></svg>
